tram-side.svg

<svg  viewBox="0 0 24 24" fill="currentColor"><path  d="M9 1L5 4L7.5 6H5C5 6 2 6 2 9V19H7C7 19 7 17 9 17H22V14H18V8H22V6H10.5L13 4L9 1M4 8H9V14H4V8M11 8H16V14H11V8M4 16H5V18H4V16M9 19V19.5C9 20.88 10.12 22 11.5 22C12.5 22 13.39 21.41 13.79 20.5H15.21C15.61 21.41 16.5 22 17.5 22C18.88 22 20 20.88 20 19.5V19H9Z"/></svg>

<svg fill="currentColor" viewBox="0 0 24 24"><path d="M9 1 5 4l2.5 2H5S2 6 2 9v10h5s0-2 2-2h13v-3h-4V8h4V6H10.5L13 4zM4 8h5v6H4zm7 0h5v6h-5zm-7 8h1v2H4zm5 3v.5a2.5 2.5 0 0 0 2.5 2.5c1 0 1.89-.59 2.29-1.5h1.42c.4.91 1.29 1.5 2.29 1.5a2.5 2.5 0 0 0 2.5-2.5V19z"/></svg>
